!!!ONB: MCCC : IJH0412_03 : Extracted Monophonic Melody
!!!COM: Haydn, Joseph
!!!OPR: String Quartet in B-flat major
!!!OMV: 3
!!!SCT: Hob.III:67 ; Op.64 No.3
!!!ODT: 1790///
**kern
*thru
*k[b-e-]
*B-:
*clefF
*M3/4
8aa
8bb-
=1
4ff
4r
8aa
8bb-
=2
8ff
8ddd
8ccc
8bb-
8aa
8gg
=3
4ff
8ff
8dd
8ee-
8gg
=4
4ff
4r
8a
8b-
=5
4f
4dd
4b
=6
8cc
8b
8dd
8cc
8ee-
8dd
=7
8ff
8ee-
4gg
4gg
=8
4gg
2r
=9
4r
16ff
8.ee-
16dd
8.cc
=10
4b-
2r
=11
2.cc
=12
4b-
4cc
4b-
=13
4cc
4b-
4cc
=14
4b-
4r
4r
=15
2.r
=16
2r
8ee
8ff
=17
4aa
4aa
8ee
8ff
=18
4aa
4aa
8ee
8ff
=19
4ccc
8bb
8ccc
8aa
8bb-
=20
8gg#
8aa
8ff#
8gg
8ee
8ff
=21
8cc#
8dd
8a
8b-
8g
8e
=22
4f
2r
=23
2.d
=24
2.e-
=25
2.c
=26
2d
8e
8f
=27
8e
8f
8g
8f
8e-
8d
=28
4c
4r
8e
8f
=29
4a
4r
8g#
8a
=30
4cc
4r
8b
8cc
=31
4ee-
2r
=32
2r
8aa
8bb-
=33
4ff
4r
8aa
8bb-
=34
8ff
8ddd
8ccc
8bb-
8aa
8gg
=35
4ff
8ff
8dd
8ee-
8gg
=36
4ff
4r
8a
8b-
=37
4f
4dd
4b
=38
8cc
8b
8dd
8cc
8ee-
8dd
=39
8ff
8ee-
4gg
4gg
=40
4gg
2r
=41
4r
16ff
8.ee-
16dd
8.cc
=42
4b-
2r
=43
2.cc
=44
4b-
4cc
4b-
=45
4cc
4b-
4cc
=46
4b-
4ee-
4dd
=47
4ee-
4dd
4gg
=48
4ff
2r
=49
2r
8aa
8bb-
=50
4ff
4ff
8aa
8bb-
=51
4ee
4ee
8bb
8ccc
=52
4ee-
4ee-
4r
=53
2r
8bb
8ccc
=54
4eee-
8eee-
8ccc
8eee-
8ccc
=55
8aa
8ff
8ee-
8cc
8a
8e-
=56
8d
8f
8b-
8dd
8ff
8dd
=57
4cc
8ee-
8cc
8a
8f
=58
4b-
4r
4ff[
=59
4ff]
8gg
8r
4ff[
=60
4ff]
8dd
8r
4b-[
=61
4b-]
8f
8r
4d[
=62
4d]
8B-
8r
4d
=63
4e-
8e-
8d
4e-
=64
2d
4d
=65
4c
8c
8B-
4c
=66
2B-
4B
=67
4c
8c
8B
4c
=68
2d
4g
=69
4e
8e
8d
4e
=70
4f
4r
8ff
8dd
=71
2b
4aa-[
=72
4aa-]
8gg
8r
4ff[
=73
4ff]
8ee-
8r
4dd[
=74
4dd]
8cc
8r
8ee-
8cc
=75
2a
4gg[
=76
4gg]
8ff
8r
4ee-[
=77
4ee-]
8dd
8r
4cc[
=78
4cc]
8b-
8r
4b-[
=79
4b-]
8B-
8r
4b-[
=80
4b-]
8B-
8r
4b-[
=81
4b-]
8B-
8r
4b-[
=82
4b-]
8a
8r
4ff[
=83
4ff]
8gg
8r
4ff[
=84
4ff]
8dd
8r
4b-[
=85
4b-]
8f
8r
4d[
=86
4d]
8B-
8r
4d
=87
4e-
8e-
8d
4e-
=88
4d
4r
4d
=89
4e-
8e-
8d
4e-
=90
4d
4r
4dd
=91
4ee-
8ee-
8dd
4ee-
=92
4gg
2r
=93
2r
4ff[
=94
4ff]
8dd
8r
4ee-[
=95
4ee-]
8cc
8r
4a
=96
2b-
8f
8dd
=97
4cc
8cc
8b-
8cc
8dd
=98
2b-
8f
8dd
=99
4cc
8cc
8b-
8cc
8dd
=100
4b-
2r
==
*-
